src/ui/home.svg

<?xml version="1.0" encoding="UTF-8"?><svg xmlns="http://www.w3.org/2000/svg" width="32" height="32" viewBox="0 0 32 32"><defs><style>.uuid-a9cb08c8-3d11-4050-b43e-910433af829f{fill:none;}.uuid-fc84e0e0-05de-4838-9bfb-8bda8a24a3ff{fill:#151515;}</style></defs><g id="uuid-710cffcd-6a25-427a-8240-045b14ff0c2c"><rect class="uuid-a9cb08c8-3d11-4050-b43e-910433af829f" width="32" height="32"/></g><g id="uuid-560a7e31-1d8c-4196-9ff0-f7c351c15051"><path class="uuid-fc84e0e0-05de-4838-9bfb-8bda8a24a3ff" d="M30.70703,15.43506L17.06055,1.78857c-.58496-.58496-1.53613-.58496-2.12109,0L1.29297,15.43506c-.39062.39062-.39062,1.02344,0,1.41406s1.02344.39062,1.41406,0l.29297-.29297v12.94385c0,.82715.67285,1.5,1.5,1.5h23c.82715,0,1.5-.67285,1.5-1.5v-12.94385l.29297.29297c.19531.19531.45117.29297.70703.29297s.51172-.09766.70703-.29297c.39062-.39062.39062-1.02344,0-1.41406ZM19,29h-6v-10h6v10ZM27,19v10h-6v-10.5c0-.82715-.67285-1.5-1.5-1.5h-7c-.82715,0-1.5.67285-1.5,1.5v10.5h-6v-14.44385L16,3.55615l11,11v4.44385Z"/></g></svg>

<svg xmlns="http://www.w3.org/2000/svg" viewBox="0 0 32 32">
  <path d="M30.707 15.435 17.061 1.789a1.501 1.501 0 0 0-2.121 0L1.293 15.435a.999.999 0 1 0 1.414 1.414L3 16.556V29.5c0 .827.673 1.5 1.5 1.5h23c.827 0 1.5-.673 1.5-1.5V16.556l.293.293a.997.997 0 0 0 1.414 0 .999.999 0 0 0 0-1.414ZM19 29h-6V19h6v10Zm8-10v10h-6V18.5c0-.827-.673-1.5-1.5-1.5h-7c-.827 0-1.5.673-1.5 1.5V29H5V14.556l11-11 11 11V19Z"/>
</svg>
